X:91
M:C
L:1/8
K:F
~F>GA>B c>ff>a||
g<g b>a ~g2 de/^f/|g<g g>a b>ag>d|g<g b>a ~g2 dc/B/|A<fc<f A>GF>a|
g<g b>a ~g2 de/^f/|g<g g>a b>ag>d|g<g b>g a<fg<e|f<cd>f A<Fc>A||

